X:490
T: "Treue Liebe"
N: Z1170
O: Europa, Mitteleuropa, Deutschland, Lothringen
R: Liebes - Lied, Abschieds - Lied
M: 3/4
L: 1/16
K: Eb
G2A2 | B4G4F2G2 | A4F4z4 |
E2G2G2B2G2FE | F2F2
G2G2BAGF | G8F4 | E8
G2A2 | B4G4F2G2 | A4F4z4 |
E2G2G2B2G2FE | G2EF
G2FGBAGF | G8F4 | E8

@@@ Tune index: 10248
